Newaita-dark/.DP/24/skype-status-connecting-0.svg

<svg xmlns="http://www.w3.org/2000/svg" xmlns:xlink="http://www.w3.org/1999/xlink" width="24px" height="24px" viewBox="0 0 24 24" version="1.1">
<g id="surface1">
<path style=" stroke:none;fill-rule:nonzero;fill:rgb(93.333334%,93.333334%,93.333334%);fill-opacity:1;" d="M 8.046875 3.148438 C 5.695312 3.148438 3.804688 5.042969 3.804688 7.390625 C 3.804688 8.101562 3.976562 8.773438 4.28125 9.359375 C 3.972656 10.214844 3.804688 11.140625 3.804688 12.105469 C 3.804688 16.546875 7.375 20.117188 11.816406 20.117188 C 12.164062 20.117188 12.5 20.097656 12.835938 20.054688 C 13.578125 20.683594 14.535156 21.0625 15.585938 21.0625 C 17.9375 21.0625 19.828125 19.171875 19.828125 16.820312 C 19.828125 16.109375 19.65625 15.4375 19.351562 14.851562 C 19.660156 13.996094 19.828125 13.070312 19.828125 12.105469 C 19.828125 7.664062 16.257812 4.09375 11.816406 4.09375 C 11.46875 4.09375 11.128906 4.117188 10.796875 4.15625 C 10.054688 3.527344 9.09375 3.148438 8.046875 3.148438 Z M 11.785156 7.90625 C 12.835938 7.90625 13.863281 8.328125 14.617188 9.097656 C 15.21875 9.894531 13.5 10.890625 12.777344 10.160156 C 12.183594 9.816406 11.429688 9.792969 10.789062 10.164062 C 10.152344 10.53125 9.796875 11.195312 9.796875 11.882812 C 10.0625 12.875 8.34375 13.867188 7.957031 12.945312 C 7.476562 11.238281 8.191406 9.371094 9.796875 8.445312 C 10.425781 8.078125 11.109375 7.90625 11.785156 7.90625 Z M 15.289062 10.882812 C 15.53125 10.878906 15.75 10.988281 15.859375 11.246094 C 16.335938 12.953125 15.625 14.820312 14.015625 15.75 C 12.40625 16.675781 10.4375 16.359375 9.195312 15.09375 C 8.898438 14.695312 9.171875 14.246094 9.617188 13.988281 C 10.0625 13.734375 10.675781 13.664062 11.039062 14.03125 C 11.632812 14.375 12.382812 14.398438 13.023438 14.03125 C 13.664062 13.660156 14.015625 12.992188 14.015625 12.308594 C 13.828125 11.59375 14.65625 10.882812 15.289062 10.882812 Z M 15.289062 10.882812 "/>
</g>
</svg>

<svg xmlns="http://www.w3.org/2000/svg" width="32" height="32" viewBox="0 0 24 24"><path d="M8.043 3.148a4.236 4.236 0 0 0-4.242 4.243c0 .71.176 1.382.48 1.968a8.084 8.084 0 0 0-.48 2.746 7.997 7.997 0 0 0 9.035 7.95 4.234 4.234 0 0 0 2.75 1.008 4.231 4.231 0 0 0 4.242-4.243c0-.71-.172-1.379-.48-1.968a7.99 7.99 0 0 0 .48-2.747 7.995 7.995 0 0 0-8.012-8.011c-.347 0-.687.02-1.023.062a4.218 4.218 0 0 0-2.75-1.008zm3.742 4.758c1.05 0 2.078.422 2.832 1.192.606.797-1.113 1.789-1.84 1.062a1.98 1.98 0 0 0-1.984 0 1.984 1.984 0 0 0-.996 1.723c.27.988-1.45 1.98-1.84 1.058a3.965 3.965 0 0 1 1.84-4.5 4 4 0 0 1 1.988-.535zm3.504 2.973c.246 0 .461.11.57.367a3.958 3.958 0 0 1-1.843 4.5 3.95 3.95 0 0 1-4.817-.656c-.304-.399-.023-.844.422-1.102.441-.258 1.055-.324 1.418.043a1.98 1.98 0 0 0 1.984-.004c.641-.367.997-1.03.997-1.718-.196-.711.64-1.426 1.27-1.43zm0 0" fill="#bdbdbd"/></svg>
